images/social_media/dribble_4.svg

<svg width="50" height="50" viewBox="0 0 50 50" fill="none" xmlns="http://www.w3.org/2000/svg">
<path d="M24.9701 0C28.4349 0 31.6806 0.657109 34.7073 1.97133C37.734 3.28554 40.3823 5.0677 42.6523 7.3178C44.9223 9.5679 46.7145 12.2063 48.0287 15.233C49.3429 18.2597 50 21.5054 50 24.9701C50 28.4349 49.3429 31.6806 48.0287 34.7073C46.7145 37.734 44.9223 40.3823 42.6523 42.6523C40.3823 44.9223 37.734 46.7145 34.7073 48.0287C31.6806 49.3429 28.4349 50 24.9701 50C21.5054 50 18.2597 49.3429 15.233 48.0287C12.2063 46.7145 9.5679 44.9223 7.3178 42.6523C5.0677 40.3823 3.28554 37.734 1.97133 34.7073C0.657109 31.6806 0 28.4349 0 24.9701C0 21.5054 0.657109 18.2597 1.97133 15.233C3.28554 12.2063 5.0677 9.5679 7.3178 7.3178C9.5679 5.0677 12.2063 3.28554 15.233 1.97133C18.2597 0.657109 21.5054 0 24.9701 0ZM24.9701 39.0681C26.9215 39.0681 28.7535 38.6997 30.466 37.963C32.1784 37.2262 33.6718 36.2206 34.9462 34.9462C36.2206 33.6718 37.2262 32.1784 37.963 30.466C38.6997 28.7535 39.0681 26.9215 39.0681 24.9701C39.0681 23.0187 38.6997 21.1967 37.963 19.5042C37.2262 17.8116 36.2206 16.3282 34.9462 15.0538C33.6718 13.7794 32.1784 12.7738 30.466 12.037C28.7535 11.3003 26.9215 10.9319 24.9701 10.9319C23.0585 10.9319 21.2465 11.3003 19.534 12.037C17.8216 12.7738 16.3282 13.7794 15.0538 15.0538C13.7794 16.3282 12.7738 17.8116 12.037 19.5042C11.3003 21.1967 10.9319 23.0187 10.9319 24.9701C10.9319 26.9215 11.3003 28.7535 12.037 30.466C12.7738 32.1784 13.7794 33.6718 15.0538 34.9462C16.3282 36.2206 17.8216 37.2262 19.534 37.963C21.2465 38.6997 23.0585 39.0681 24.9701 39.0681ZM26.1649 25.3883C24.1338 26.0653 22.2919 27.041 20.6392 28.3154C18.9865 29.5898 17.5627 31.1231 16.368 32.9152C14.4962 30.8443 13.4608 28.3751 13.2616 25.5078C13.5802 25.5476 13.869 25.5675 14.1278 25.5675H14.9343C18.5982 25.5675 22.1027 24.9502 25.448 23.7157L25.8065 24.552L26.1649 25.3883ZM27.6583 22.8196C30.1673 21.7045 32.497 20.231 34.6476 18.399C36.0016 20.3505 36.6786 22.5209 36.6786 24.9104C35.1653 24.552 33.6918 24.3728 32.2581 24.3728C30.9438 24.3728 29.6695 24.5121 28.4349 24.7909C28.3154 24.4723 28.1959 24.1438 28.0765 23.8053C27.957 23.4667 27.8176 23.1382 27.6583 22.8196ZM18.1601 34.5281C19.1955 32.8554 20.4699 31.4317 21.9833 30.2569C23.4966 29.082 25.1493 28.1959 26.9415 27.5986C27.3795 28.9526 27.738 30.3365 28.0167 31.7503C28.2955 33.1641 28.5145 34.6077 28.6738 36.0812C27.5189 36.4795 26.2843 36.6786 24.9701 36.6786C22.4612 36.6786 20.1912 35.9618 18.1601 34.5281ZM29.2115 27.0012C30.3266 26.8021 31.3421 26.7025 32.2581 26.7025C33.7316 26.7025 35.1255 26.9016 36.4397 27.2999C36.1211 28.9327 35.4839 30.4261 34.5281 31.7802C33.5723 33.1342 32.3775 34.2294 30.9438 35.0657C30.6651 32.3576 30.0876 29.6695 29.2115 27.0012ZM33.1541 16.6069C32.1187 17.4433 31.0633 18.2099 29.9881 18.9068C28.9128 19.6037 27.7977 20.2111 26.6428 20.7288C25.9658 19.4942 25.2389 18.2895 24.4624 17.1147C23.6858 15.9399 22.8395 14.7949 21.9235 13.6798C22.8793 13.401 23.8949 13.2616 24.9701 13.2616C26.5233 13.2616 27.9968 13.5504 29.3907 14.1278C30.7845 14.7053 32.039 15.5317 33.1541 16.6069ZM24.4325 21.6249C21.366 22.7001 18.1999 23.2378 14.9343 23.2378H14.1278L13.4409 23.178C13.7196 21.3461 14.3967 19.6734 15.4719 18.1601C16.5472 16.6468 17.9211 15.452 19.5938 14.5759C21.4656 16.7264 23.0785 19.0761 24.4325 21.6249Z" fill="white"/>
</svg>

<svg width="50" height="50" fill="none" xmlns="http://www.w3.org/2000/svg"><path d="M24.97 0c3.465 0 6.71.657 9.737 1.971 3.027 1.315 5.675 3.097 7.945 5.347 2.27 2.25 4.063 4.888 5.377 7.915S50 21.505 50 24.97s-.657 6.71-1.971 9.737c-1.315 3.027-3.107 5.675-5.377 7.945-2.27 2.27-4.918 4.063-7.945 5.377C31.681 49.343 28.435 50 24.97 50s-6.71-.657-9.737-1.971c-3.027-1.315-5.665-3.107-7.915-5.377-2.25-2.27-4.032-4.918-5.347-7.945C.657 31.681 0 28.435 0 24.97s.657-6.71 1.971-9.737c1.315-3.027 3.097-5.665 5.347-7.915 2.25-2.25 4.888-4.032 7.915-5.347C18.26.657 21.505 0 24.97 0Zm0 39.068c1.952 0 3.784-.368 5.496-1.105a14.21 14.21 0 0 0 4.48-3.017 14.21 14.21 0 0 0 3.017-4.48c.737-1.713 1.105-3.544 1.105-5.496 0-1.951-.368-3.773-1.105-5.466a14.304 14.304 0 0 0-3.017-4.45 14.21 14.21 0 0 0-4.48-3.017c-1.713-.737-3.544-1.105-5.496-1.105a13.61 13.61 0 0 0-5.436 1.105 14.21 14.21 0 0 0-4.48 3.017 14.304 14.304 0 0 0-3.017 4.45c-.737 1.693-1.105 3.515-1.105 5.466 0 1.952.368 3.784 1.105 5.496a14.21 14.21 0 0 0 3.017 4.48 14.21 14.21 0 0 0 4.48 3.017 13.61 13.61 0 0 0 5.436 1.105Zm1.195-13.68a18.618 18.618 0 0 0-5.526 2.927 19.22 19.22 0 0 0-4.271 4.6c-1.872-2.07-2.907-4.54-3.106-7.407.318.04.607.06.866.06h.806c3.664 0 7.169-.618 10.514-1.852l.358.836.359.836Zm1.493-2.568a28.735 28.735 0 0 0 6.99-4.421c1.354 1.951 2.03 4.122 2.03 6.511a19.151 19.151 0 0 0-4.42-.537c-1.314 0-2.589.14-3.823.418-.12-.319-.24-.647-.358-.986a8.606 8.606 0 0 0-.419-.985ZM18.16 34.528a16.043 16.043 0 0 1 3.823-4.271 16.583 16.583 0 0 1 4.959-2.658 36.265 36.265 0 0 1 1.075 4.151c.279 1.414.498 2.858.657 4.331-1.155.398-2.39.598-3.704.598-2.509 0-4.779-.717-6.81-2.15Zm11.052-7.527c1.115-.199 2.13-.299 3.046-.299 1.474 0 2.867.2 4.182.598a11.503 11.503 0 0 1-1.912 4.48 11.317 11.317 0 0 1-3.584 3.286A38.39 38.39 0 0 0 29.212 27Zm3.942-10.394a37.484 37.484 0 0 1-3.166 2.3 24.785 24.785 0 0 1-3.345 1.822 51.178 51.178 0 0 0-2.18-3.614 41.232 41.232 0 0 0-2.54-3.435 10.83 10.83 0 0 1 3.047-.418c1.553 0 3.027.288 4.42.866a12.005 12.005 0 0 1 3.764 2.479Zm-8.722 5.018a28.502 28.502 0 0 1-9.498 1.613h-.806l-.687-.06a11.548 11.548 0 0 1 2.03-5.018 11.558 11.558 0 0 1 4.123-3.584 37.477 37.477 0 0 1 4.838 7.049Z" fill="#fff"/></svg>
